X:1
T:Title
%%score { 1 | 2 }
L:1/8
M:3/4
K:G
V:1 treble nm="Grand Piano"
V:2 bass 
V:1
 z2 z2[Q:1/4=100] [B,D]2 | [B,G]>[B,G] [DB]2 [B,G]2 | [CE]>[CE] [EG]2 [CE]2 | %3
 [B,D]>[B,G] [B,G]2 [DB]2 |[M:2/4] [DA]4 |[M:1/4] [CD]2 |[M:3/4] [B,G]>[B,G] [DB]2 [B,G]2 | %7
 [CE]>[CE] [EG]2 E2 | D>G A2 B2 |[M:2/4] [B,G]4 |[M:1/4] [B,G]2 |[M:3/4] A>A A2 B2 | [B,G]4 [DF]2 | %13
 E>E E2 [^CB]2 | [DA]4 [CD]2 | [B,G]>[B,G] [DB]2 [B,G]2 | [CE]>[CE] [EG]2 E2 | D>G A2 B2 | %18
[M:2/4] [B,G]4 |] %19
V:2
 z2 z2 [G,,G,]2 | [G,,G,]>[G,,G,] [G,,G,]2 [G,,G,]2 | [C,G,]>[C,G,] [C,G,]2 [C,G,]2 | %3
 [G,,G,]>[G,,G,] [G,,G,]2 [G,,G,]2 |[M:2/4] [D,F,]4 |[M:1/4] [D,F,]2 | %6
[M:3/4] [G,,G,]>[G,,G,] [G,,G,]2 [G,,G,]2 | [C,G,]>[C,G,] [C,G,]2 [C,G,C]2 | %8
 [D,G,B,]>[D,G,B,] [D,F,C]2 [D,F,D]2 |[M:2/4] [G,,G,]4 |[M:1/4] [G,,G,]2 | %11
[M:3/4] [D,F,C]>[D,F,C] [D,F,C]2 [D,F,D]2 | [G,,G,]4 [B,,G,]2 | [C,G,C]>[C,G,C] [C,G,C]2 [A,,G,]2 | %14
 [D,F,]4 [D,F,]2 | [G,,G,]>[G,,G,] [G,,G,]2 [G,,G,]2 | [C,G,]>[C,G,] [C,G,]2 [C,G,C]2 | %17
 [D,G,B,]>[D,G,B,] [D,F,C]2 [D,F,D]2 |[M:2/4] [G,,G,]4 |] %19

